icons/left-turn.svg

<!-- Generated by IcoMoon.io -->
<svg version="1.1" xmlns="http://www.w3.org/2000/svg" width="512" height="512" viewBox="0 0 512 512">
<title></title>
<g id="icomoon-ignore">
    <line stroke-width="1" x1="16" y1="0" x2="16" y2="512" stroke="#449FDB" opacity="0.3"></line>
    <line stroke-width="1" x1="32" y1="0" x2="32" y2="512" stroke="#449FDB" opacity="1"></line>
    <line stroke-width="1" x1="48" y1="0" x2="48" y2="512" stroke="#449FDB" opacity="0.3"></line>
    <line stroke-width="1" x1="64" y1="0" x2="64" y2="512" stroke="#449FDB" opacity="1"></line>
    <line stroke-width="1" x1="80" y1="0" x2="80" y2="512" stroke="#449FDB" opacity="0.3"></line>
    <line stroke-width="1" x1="96" y1="0" x2="96" y2="512" stroke="#449FDB" opacity="1"></line>
    <line stroke-width="1" x1="112" y1="0" x2="112" y2="512" stroke="#449FDB" opacity="0.3"></line>
    <line stroke-width="1" x1="128" y1="0" x2="128" y2="512" stroke="#449FDB" opacity="1"></line>
    <line stroke-width="1" x1="144" y1="0" x2="144" y2="512" stroke="#449FDB" opacity="0.3"></line>
    <line stroke-width="1" x1="160" y1="0" x2="160" y2="512" stroke="#449FDB" opacity="1"></line>
    <line stroke-width="1" x1="176" y1="0" x2="176" y2="512" stroke="#449FDB" opacity="0.3"></line>
    <line stroke-width="1" x1="192" y1="0" x2="192" y2="512" stroke="#449FDB" opacity="1"></line>
    <line stroke-width="1" x1="208" y1="0" x2="208" y2="512" stroke="#449FDB" opacity="0.3"></line>
    <line stroke-width="1" x1="224" y1="0" x2="224" y2="512" stroke="#449FDB" opacity="1"></line>
    <line stroke-width="1" x1="240" y1="0" x2="240" y2="512" stroke="#449FDB" opacity="0.3"></line>
    <line stroke-width="1" x1="256" y1="0" x2="256" y2="512" stroke="#449FDB" opacity="1"></line>
    <line stroke-width="1" x1="272" y1="0" x2="272" y2="512" stroke="#449FDB" opacity="0.3"></line>
    <line stroke-width="1" x1="288" y1="0" x2="288" y2="512" stroke="#449FDB" opacity="1"></line>
    <line stroke-width="1" x1="304" y1="0" x2="304" y2="512" stroke="#449FDB" opacity="0.3"></line>
    <line stroke-width="1" x1="320" y1="0" x2="320" y2="512" stroke="#449FDB" opacity="1"></line>
    <line stroke-width="1" x1="336" y1="0" x2="336" y2="512" stroke="#449FDB" opacity="0.3"></line>
    <line stroke-width="1" x1="352" y1="0" x2="352" y2="512" stroke="#449FDB" opacity="1"></line>
    <line stroke-width="1" x1="368" y1="0" x2="368" y2="512" stroke="#449FDB" opacity="0.3"></line>
    <line stroke-width="1" x1="384" y1="0" x2="384" y2="512" stroke="#449FDB" opacity="1"></line>
    <line stroke-width="1" x1="400" y1="0" x2="400" y2="512" stroke="#449FDB" opacity="0.3"></line>
    <line stroke-width="1" x1="416" y1="0" x2="416" y2="512" stroke="#449FDB" opacity="1"></line>
    <line stroke-width="1" x1="432" y1="0" x2="432" y2="512" stroke="#449FDB" opacity="0.3"></line>
    <line stroke-width="1" x1="448" y1="0" x2="448" y2="512" stroke="#449FDB" opacity="1"></line>
    <line stroke-width="1" x1="464" y1="0" x2="464" y2="512" stroke="#449FDB" opacity="0.3"></line>
    <line stroke-width="1" x1="480" y1="0" x2="480" y2="512" stroke="#449FDB" opacity="1"></line>
    <line stroke-width="1" x1="496" y1="0" x2="496" y2="512" stroke="#449FDB" opacity="0.3"></line>
    <line stroke-width="1" x1="0" y1="16" x2="512" y2="16" stroke="#449FDB" opacity="0.3"></line>
    <line stroke-width="1" x1="0" y1="32" x2="512" y2="32" stroke="#449FDB" opacity="1"></line>
    <line stroke-width="1" x1="0" y1="48" x2="512" y2="48" stroke="#449FDB" opacity="0.3"></line>
    <line stroke-width="1" x1="0" y1="64" x2="512" y2="64" stroke="#449FDB" opacity="1"></line>
    <line stroke-width="1" x1="0" y1="80" x2="512" y2="80" stroke="#449FDB" opacity="0.3"></line>
    <line stroke-width="1" x1="0" y1="96" x2="512" y2="96" stroke="#449FDB" opacity="1"></line>
    <line stroke-width="1" x1="0" y1="112" x2="512" y2="112" stroke="#449FDB" opacity="0.3"></line>
    <line stroke-width="1" x1="0" y1="128" x2="512" y2="128" stroke="#449FDB" opacity="1"></line>
    <line stroke-width="1" x1="0" y1="144" x2="512" y2="144" stroke="#449FDB" opacity="0.3"></line>
    <line stroke-width="1" x1="0" y1="160" x2="512" y2="160" stroke="#449FDB" opacity="1"></line>
    <line stroke-width="1" x1="0" y1="176" x2="512" y2="176" stroke="#449FDB" opacity="0.3"></line>
    <line stroke-width="1" x1="0" y1="192" x2="512" y2="192" stroke="#449FDB" opacity="1"></line>
    <line stroke-width="1" x1="0" y1="208" x2="512" y2="208" stroke="#449FDB" opacity="0.3"></line>
    <line stroke-width="1" x1="0" y1="224" x2="512" y2="224" stroke="#449FDB" opacity="1"></line>
    <line stroke-width="1" x1="0" y1="240" x2="512" y2="240" stroke="#449FDB" opacity="0.3"></line>
    <line stroke-width="1" x1="0" y1="256" x2="512" y2="256" stroke="#449FDB" opacity="1"></line>
    <line stroke-width="1" x1="0" y1="272" x2="512" y2="272" stroke="#449FDB" opacity="0.3"></line>
    <line stroke-width="1" x1="0" y1="288" x2="512" y2="288" stroke="#449FDB" opacity="1"></line>
    <line stroke-width="1" x1="0" y1="304" x2="512" y2="304" stroke="#449FDB" opacity="0.3"></line>
    <line stroke-width="1" x1="0" y1="320" x2="512" y2="320" stroke="#449FDB" opacity="1"></line>
    <line stroke-width="1" x1="0" y1="336" x2="512" y2="336" stroke="#449FDB" opacity="0.3"></line>
    <line stroke-width="1" x1="0" y1="352" x2="512" y2="352" stroke="#449FDB" opacity="1"></line>
    <line stroke-width="1" x1="0" y1="368" x2="512" y2="368" stroke="#449FDB" opacity="0.3"></line>
    <line stroke-width="1" x1="0" y1="384" x2="512" y2="384" stroke="#449FDB" opacity="1"></line>
    <line stroke-width="1" x1="0" y1="400" x2="512" y2="400" stroke="#449FDB" opacity="0.3"></line>
    <line stroke-width="1" x1="0" y1="416" x2="512" y2="416" stroke="#449FDB" opacity="1"></line>
    <line stroke-width="1" x1="0" y1="432" x2="512" y2="432" stroke="#449FDB" opacity="0.3"></line>
    <line stroke-width="1" x1="0" y1="448" x2="512" y2="448" stroke="#449FDB" opacity="1"></line>
    <line stroke-width="1" x1="0" y1="464" x2="512" y2="464" stroke="#449FDB" opacity="0.3"></line>
    <line stroke-width="1" x1="0" y1="480" x2="512" y2="480" stroke="#449FDB" opacity="1"></line>
    <line stroke-width="1" x1="0" y1="496" x2="512" y2="496" stroke="#449FDB" opacity="0.3"></line>
</g>
<path d="M494.7 65.7h-115.9c-0.6-0.1-1.2-0.1-1.8-0.1h-190.9v-47.5c0-13.4-14.5-21.7-26-15l-151.8 87.6c-11.6 6.7-11.6 23.4 0 30l151.8 87.6c11.6 6.7 26-1.7 26-15v-47.5h190.9c0.8 0 1.6-0.1 2.3-0.2h52.4v349.4c0 8.3 7.8 15.1 17.3 15.1h45.5c9.6 0 17.3-6.7 17.3-15.1v-414.2c0.2-8.3-7.6-15.1-17.1-15.1z"></path>
</svg>

<?xml version="1.0" encoding="utf-8"?>
<!-- Generator: Adobe Illustrator 24.0.3, SVG Export Plug-In . SVG Version: 6.00 Build 0)  -->
<svg version="1.1" id="Layer_1" xmlns="http://www.w3.org/2000/svg" xmlns:xlink="http://www.w3.org/1999/xlink" x="0px" y="0px"
	 viewBox="0 0 512 512" style="enable-background:new 0 0 512 512;" xml:space="preserve">
<title></title>
<path d="M494.7,65.7H378.8c-0.6-0.1-1.2-0.1-1.8-0.1H186.1V18.1c0-13.4-14.5-21.7-26-15L8.3,90.7c-11.6,6.7-11.6,23.4,0,30
	l151.8,87.6c11.6,6.7,26-1.7,26-15v-47.5H377c0.8,0,1.6-0.1,2.3-0.2h52.4V495c0,8.3,7.8,15.1,17.3,15.1h45.5
	c9.6,0,17.3-6.7,17.3-15.1V80.8C512,72.5,504.2,65.7,494.7,65.7L494.7,65.7z"/>
</svg>
